!!! OTL: Berkowitz590
!!! Chapter: 1
!!! Section: V
!!! Page: 149
!!! Mode: 
!!! Encoder: AR
**kern
*staff1
=1-
!!pagebreak:original
*clefC4
*k[]
*C:
*met(c|)
*M2/2
2.E/
4F/
=2
1D
=3
4E/
4E/
4E/
8G/L
8F/J
=4
1D-
=5
2.C/
4F/
=6
2B-\
2A\
=7
2.F#/
4G#/
=8
1B
=9
!!linebreak:original
2.c\
4A\
=10
2F#/
2D#/
=11
2.c\
4G#/
=12
2E/
2C#/
=13
2.G#/
8B\L
8B-\J
=14
!!linebreak:original
1Gn
=15
2.E/
4F#/
=16
2A\
2G/
=17
[1B-
=18
2B-\]
2r
==
*-
